!!!COM: Palestrina, Giovanni Perluigi da
!!!OPR: Missa In festis Apostolorum (II)
!!!OMD: Credo
!!!OTL: Confiteor
**kern	**kern	**kern	**kern	**kern
*Ibass	*Itenor	*Itenor	*Icalto	*Icant
!Bassus	!Tenor 2	!Tenor 1	!Altus	!Cantus
*clefF4	*clefGv2	*clefGv2	*clefG2	*clefG2
*k[]	*k[]	*k[]	*k[]	*k[]
*D:dor	*D:dor	*D:dor	*D:dor	*D:dor
*M4/2	*M4/2	*M4/2	*M4/2	*M4/2
=167	=167	=167	=167	=167
1r	0d	0r	0r	0r
[1G	.	.	.	.
=168	=168	=168	=168	=168
1G]	2.e	0r	0r	0r
.	4e	.	.	.
2.A	2e	.	.	.
.	2A	.	.	.
4A	.	.	.	.
=169	=169	=169	=169	=169
2A	2c	0r	0r	0r
2D	2d	.	.	.
2F	2c	.	.	.
[2G	[2B	.	.	.
=170	=170	=170	=170	=170
4G]	4B]	1r	0d	1r
8F#	8A	.	.	.
8E	8G	.	.	.
2F#	2A	.	.	.
2.G	[1B	[1G	.	[1b
4F	.	.	.	.
=171	=171	=171	=171	=171
4E	1B]	1G]	2.e	1b]
4D	.	.	.	.
2E	.	.	.	.
.	.	.	4e	.
1AA	1r	2.A	2e	2.cc
.	.	.	2A	.
.	.	4A	.	4cc
=172	=172	=172	=172	=172
0r	2r	2A	2e	2cc
.	2A	2D	2.f	2dd
.	2A	2F	.	2cc
.	.	.	4c	.
.	2B	2G	[2e	[2b
=173	=173	=173	=173	=173
0r	2.c	1F	2e]	4b]
.	.	.	.	4a
.	.	.	2d	1a
.	8B	.	.	.
.	8A	.	.	.
.	1B	1E	1e	.
.	.	.	.	2g#
=174	=174	=174	=174	=174
2r	0A	1r	2r	0a
1D	.	.	1f	.
.	.	2r	.	.
2C	.	[2A	2e	.
=175	=175	=175	=175	=175
2D	1r	2A]	2f	0r
2E	.	2G	2e	.
1F	2r	1A	2c	.
.	[2A	.	2d	.
=176	=176	=176	=176	=176
1E	2A]	1B	1e	0r
.	2G	.	.	.
2.D	2A	1d	[1f	.
.	2B	.	.	.
4E	.	.	.	.
=177	=177	=177	=177	=177
4F	1A	1c	2f]	0r
4G	.	.	.	.
1A	.	.	2e	.
.	1E	1B	1e	.
2G	.	.	.	.
=178	=178	=178	=178	=178
1F	1r	1.c	4A	2r
.	.	.	4B	.
.	.	.	4c	1a
.	.	.	4d	.
2.E	2r	.	[1e	.
.	[2E	[2B	.	2g
4D	.	.	.	.
=179	=179	=179	=179	=179
2C	2E]	2B]	2e]	1a
2D	2F	1A	4d	.
.	.	.	4c	.
1BB	1D	.	1d	2b
.	.	2G#	.	[2dd
=180	=180	=180	=180	=180
2AA	2.E	1A	1r	2dd]
2AA	.	.	.	2cc
.	4F	.	.	.
1GG	2.G	1r	2r	2b
.	.	.	[2d	[2b
.	4F	.	.	.
=181	=181	=181	=181	=181
2AA	1E	1r	2d]	2b]
2AA	.	.	2c	1a
1BB-	1D	2r	1d	.
.	.	[2d	.	2g
=182	=182	=182	=182	=182
1AA	2r	2d]	1e	1a
.	1A	2c	.	.
2r	.	2d	1g	1b
2E	2G	2e	.	.
=183	=183	=183	=183	=183
2F	1A	1c	1f	1a
2.A	.	.	.	.
.	1B	2B	1e	1b
8G#	.	.	.	.
8F#	.	.	.	.
2G#	.	2E	.	.
=184	=184	=184	=184	=184
2A	1d	4D	1.f	2a
.	.	4E	.	.
2D	.	4F	.	2b
.	.	4G	.	.
2.AA	2c	1A	.	[1cc
.	[2C	.	[2e	.
4BB	.	.	.	.
=185	=185	=185	=185	=185
2C	2C]	2.G	2e]	2cc]
2GG	2D	.	1d	2b-
.	.	4F	.	.
1AA	1A	4E	.	1a
.	.	4D	.	.
.	.	2E	2c#	.
=186	=186	=186	=186	=186
[0D	[0F#	[0D	[0d	[0a
=187	=187	=187	=187	=187
0D]	0F#]	0D]	0d]	0a]
*-	*-	*-	*-	*-
!!!CDT: 1525/^1526/-1594/2/2
!!!OCY: Italia
!!!AGN: Mass (Paraphrase)
!!!AST: renaissance, vocal
!!!ASW: Gregorian Mass
!!!PWK: Masses, Book Mantuan II
!!!RNB: Cadence finals: A
!!!YOR: Le Opere Complete, v. 19, p. 1
!!!YOO: Rome, Italy: Fratelli Scalera
!!!END: 1992//
!!!EED: John Miller
!!!YEC: Copyright 2000, John Miller
!!!YEN: United States of America
!!!YEM: Rights to all derivative electronic formats reserved.
!!!YEM: Refer to licensing agreement for further details.
!!!YEM: This file must be accompanied by the licensing agreement.
!!!YEM: A copy of the licensing agreement may be found at http://www.music-cog.ohio-state.edu/HumdrumDatabases/Palestrina/license.txt
!!!EMD: converted to Humdrum by Bret Aarden
